X: 27976
T: Mouseskin Shoe, The
R: reel
M: 4/4
K: Gmajor
|:DdcA c3A|GE E2 Ddce|d3e f2ge|dfed cAAB|
c3e dfeg|(3fga ge fded|c3e dcAG|1 E3G (3AcA GE:|2 E3G FDD2||
|:f3d Adfd|cG G2 cedc|AdcA dcAG|E3G FAde|
[1 f3d Adfd|cG G2 cedc|AdcA dcAG|E3G FDD2:|
[2 dage a2ge|(3fga ge fded|c3e dcAG|E3G (3AcA GE||

